X:91
T:Clinch Mountain Backstep
C:Ralph Stanley - Arr. Mike Stangeland
N:
R:bluegrass
L:1/8
Q:1/4=250
M:4/4
K:C
z6 eg |: "A"ae (3gag e2 d2 | ed (3cdc A2 eg | aa aa ag ed | "E"[ed][ee] [ee][ee] [e2e2] aa | 
"A"ae ga eA cd | ed (3cdc A2 Ac | "E"de dc A[AG] [A2E2] |1 [A2G2] [AA][AA] [A2A2] aa :|2 A2 AA A2 G2 | 
"A"[A2A2] [A2A2] [A2A2] Ac | dc Ad cA G2 | [A2A2] [A2A2] [A2A2] Ac | dA cd "E"[e2e2] [ee][ee] | 
[e2e2] aa "A"[a2A2] g2 | e2 d2 ed c2 | A2 Ac "E"de dc | dc AG "A"A2 AA | 
M:2/4
A2 G2 | 
M:4/4
[A2A2] [A2A2] [A2A2] Ac | dc Ad cA G2 | [A2A2] [A2A2] [A2A2] Ac | dA cd "E"[ee][ee] [ee][ee] | 
eA eg "A"a2 g2 | e2 d2 ed c2 | A2 Ac "E"de dc | dc AG "A"A2 AA | A8 | 


